public/img/upload.svg

<svg id="Layer_1" data-name="Layer 1" xmlns="http://www.w3.org/2000/svg" viewBox="0 0 499.7 411.91"><defs><style>.cls-1{fill:#fff}</style></defs><path class="cls-1" d="M467.68 455.87H32.62A32.31 32.31 0 01.3 423.55v-153a32.32 32.32 0 0164.64 0v120.68h370.42V270.52a32.32 32.32 0 0164.64 0v153a32.32 32.32 0 01-32.32 32.35z" transform="translate(-.3 -43.97)"/><g id="Group_50" data-name="Group 50"><path class="cls-1" d="M250.16 342.46a19.39 19.39 0 01-19.39-19.39V63.36a19.39 19.39 0 0138.78 0v259.71a19.39 19.39 0 01-19.39 19.39z" transform="translate(-.3 -43.97)"/><path class="cls-1" d="M321.81 190.21a19.37 19.37 0 01-16.15-8.63L234 74.12a19.39 19.39 0 1132.3-21.51l71.63 107.45a19.4 19.4 0 01-16.12 30.15z" transform="translate(-.3 -43.97)"/><path class="cls-1" d="M178.51 190.21a19.4 19.4 0 01-16.12-30.15L234 52.61a19.39 19.39 0 0132.3 21.51l-71.64 107.46a19.36 19.36 0 01-16.15 8.63z" transform="translate(-.3 -43.97)"/></g></svg>

<svg id="Layer_1" data-name="Layer 1" xmlns="http://www.w3.org/2000/svg" viewBox="0 0 499.7 411.91"><defs><style>.cls-1{fill:#fff;}</style></defs><path class="cls-1" d="M467.68,455.87H32.62A32.31,32.31,0,0,1,.3,423.55v-153a32.32,32.32,0,0,1,64.64,0V391.23H435.36V270.52a32.32,32.32,0,0,1,64.64,0v153A32.32,32.32,0,0,1,467.68,455.87Z" transform="translate(-0.3 -43.97)"/><g id="Group_50" data-name="Group 50"><path class="cls-1" d="M250.16,342.46a19.39,19.39,0,0,1-19.39-19.39V63.36a19.39,19.39,0,0,1,38.78,0V323.07A19.39,19.39,0,0,1,250.16,342.46Z" transform="translate(-0.3 -43.97)"/><path class="cls-1" d="M321.81,190.21a19.37,19.37,0,0,1-16.15-8.63L234,74.12A19.39,19.39,0,1,1,266.3,52.61l71.63,107.45a19.4,19.4,0,0,1-16.12,30.15Z" transform="translate(-0.3 -43.97)"/><path class="cls-1" d="M178.51,190.21a19.4,19.4,0,0,1-16.12-30.15L234,52.61A19.39,19.39,0,0,1,266.3,74.12L194.66,181.58A19.36,19.36,0,0,1,178.51,190.21Z" transform="translate(-0.3 -43.97)"/></g></svg>
